icons/svg/16x16/filter/outline.svg

<svg xmlns="http://www.w3.org/2000/svg" width="16" height="16" viewBox="0 0 16 16">
  <path fill-rule="evenodd" d="M8.75,7.4385 L8,8.0395 L7.25,7.4385 C6.025,6.4595 4.788,5.3715 3.934,4.5445 C4.997,4.2595 6.509,4.0005 8,4.0005 C9.491,4.0005 11.003,4.2595 12.066,4.5445 C11.212,5.3715 9.975,6.4595 8.75,7.4385 M8,2.0005 C5,2.0005 1,3.0005 1,4.0005 C1,5.0005 6,9.0005 6,9.0005 L6,13.0005 L10,15.0005 L10,9.0005 C10,9.0005 15,5.0005 15,4.0005 C15,3.0005 11,2.0005 8,2.0005"/>
</svg>

<svg width="16" height="16" fill="none" xmlns="http://www.w3.org/2000/svg">
  <path fill-rule="evenodd" clip-rule="evenodd" d="M8.75 7.438L8 8.04l-.75-.6a49.705 49.705 0 01-3.316-2.895A16.517 16.517 0 018 4c1.491 0 3.003.26 4.066.544A49.705 49.705 0 018.75 7.438zM8 2C5 2 1 3 1 4s5 5 5 5v4l4 2V9s5-4 5-5-4-2-7-2z" fill="#000"/>
</svg>
